static/images/mobile/copyright/wikipedia-tagline-sah.svg

<?xml version="1.0" encoding="UTF-8"?>
<svg width="90px" height="14px" viewBox="0 0 90 14" version="1.1" xmlns="http://www.w3.org/2000/svg" xmlns:xlink="http://www.w3.org/1999/xlink">
    <title>sah-tagline</title>
    <g id="Page-1" stroke="none" stroke-width="1" fill="none" fill-rule="evenodd">
        <path d="M4.6866745,6.23390558 C4.44081617,6.23390558 4.33325314,6.20386266 4.33325314,6.12875536 C4.33325314,6.09871245 4.34861929,6.06866953 4.36398544,6.03862661 L6.59207659,2.22317597 L6.62280888,2.22317597 L7.25282087,6.23390558 L4.6866745,6.23390558 M2.4432172,9.29828326 L3.73397345,7.12017167 C3.84153648,6.9248927 3.9490995,6.86480687 4.30252085,6.86480687 L7.37575003,6.86480687 L7.75990368,9.40343348 C7.77526983,9.44849785 7.77526983,9.49356223 7.77526983,9.53862661 C7.77526983,9.86909871 7.52941031,10.0042918 7.02232868,10.0493562 L6.59207659,10.0793991 C6.53061201,10.0793991 6.48451357,10.1244635 6.46914743,10.1995708 L6.40768284,10.4849785 L6.42304899,10.5150215 C6.97622906,10.5 7.82136826,10.4849785 8.38991566,10.4849785 C8.98919417,10.4849785 9.5731089,10.5 10.110924,10.5150215 L10.1416563,10.4849785 L10.2031209,10.1995708 C10.218487,10.1244635 10.1570224,10.0793991 10.0801917,10.0793991 L9.92653025,10.0643777 C9.34261671,10.0042918 9.09675837,9.77896996 9.0045615,9.19313305 L7.59087608,1.05150215 C7.54477764,0.766094421 7.4986792,0.600858369 7.28355316,0.600858369 C7.06842712,0.600858369 6.93013062,0.736051502 6.68427347,1.1416309 L1.84393751,8.9527897 C1.27539011,9.88412017 0.845136843,10.0343348 0.199759897,10.0793991 C0.122929167,10.0793991 0.0768307295,10.1244635 0.0614645836,10.1995708 L0,10.4849785 L0.0153661459,10.5150215 C0.568546216,10.5 0.814405733,10.4849785 1.38295313,10.4849785 C1.98223164,10.4849785 2.76590626,10.5 3.30372137,10.5150215 L3.34981981,10.4849785 L3.39591824,10.1995708 C3.41128439,10.1244635 3.36518595,10.0793991 3.30372137,10.0793991 L2.88883543,10.0493562 C2.50468178,10.0193133 2.33565418,9.86909871 2.33565418,9.64377682 C2.33565418,9.53862661 2.36638647,9.43347639 2.4432172,9.29828326 M13.1990383,9.40343348 L13.7675857,7.04506438 C14.6588221,6.33905579 15.4117644,5.96351931 15.8420153,5.96351931 C16.5334919,5.96351931 16.9483779,6.14377682 16.9483779,6.83476395 C16.9483779,7.01502146 16.9176456,7.21030043 16.8715471,7.46566524 L16.4105627,9.40343348 C16.3029997,9.83905579 16.1032398,10.0643777 15.596157,10.0643777 L15.3042002,10.0643777 C15.2273695,10.0643777 15.1659049,10.1094421 15.1505388,10.1845494 L15.0737081,10.4699571 L15.1044403,10.5 C15.1044403,10.5 16.1493394,10.4699571 16.7025195,10.4699571 C17.3017992,10.4699571 18.3466971,10.5 18.3466971,10.5 L18.3774294,10.4699571 L18.4542602,10.1845494 L18.4542602,10.1545064 C18.4542602,10.0944206 18.4081617,10.0643777 18.3466971,10.0643777 L18.0547404,10.0643777 C17.6705879,10.0643777 17.5169253,9.92918455 17.5169253,9.65879828 C17.5169253,9.58369099 17.5322914,9.50858369 17.5630237,9.40343348 L17.9779096,7.63090129 C18.0547404,7.30042918 18.0854726,7.01502146 18.0854726,6.74463519 C18.0854726,5.76824034 17.5783898,5.25751073 16.7025195,5.25751073 C16.103241,5.25751073 15.1505376,5.48283262 13.8905148,6.48927039 L14.2132039,5.10729614 C14.3207669,4.68669528 14.520528,4.44635193 15.0276096,4.44635193 L15.2734679,4.44635193 C15.3502987,4.44635193 15.3963971,4.40128755 15.4271294,4.32618026 L15.488594,4.04077253 L15.4732278,4.01072961 C15.4732278,4.01072961 14.4744284,4.04077253 13.9212471,4.04077253 C13.3219686,4.04077253 12.2770695,4.01072961 12.2770695,4.01072961 L12.2463372,4.04077253 L12.1695065,4.32618026 C12.1541403,4.40128755 12.2002388,4.44635193 12.2770695,4.44635193 L12.5690263,4.44635193 C12.9531799,4.44635193 13.1068414,4.58154506 13.1068414,4.85193133 C13.1068414,4.92703863 13.0914752,5.01716738 13.0761091,5.10729614 L12.0619435,9.40343348 C11.9543804,9.83905579 11.7546205,10.0643777 11.2321716,10.0643777 L10.9402148,10.0643777 C10.8787502,10.0643777 10.8172856,10.1094421 10.8019195,10.1845494 L10.7250888,10.4699571 L10.7558211,10.5 C10.7558211,10.5 11.8007202,10.4699571 12.3539002,10.4699571 C12.9531799,10.4699571 13.9519794,10.5 13.9519794,10.5 L13.9827117,10.4699571 L14.0441763,10.1845494 C14.0749086,10.1094421 14.013444,10.0643777 13.9519794,10.0643777 L13.7061211,10.0643777 C13.3219686,10.0643777 13.168306,9.92918455 13.168306,9.65879828 C13.168306,9.58369099 13.1836721,9.50858369 13.1990383,9.40343348 M24.8768292,3.9806867 C24.4619433,3.93562232 24.2621834,3.89055794 23.6475376,3.89055794 C22.0033611,3.89055794 19.7752688,6.24892704 19.7752688,8.60729614 C19.7752688,9.44849785 19.9750299,10.6351931 21.265785,10.6351931 C22.0801895,10.6351931 22.9867945,9.65879828 23.9087621,8.32188841 L23.9394943,8.35193133 L23.693636,9.13304721 C23.586073,9.49356223 23.5399745,9.77896996 23.5399745,9.95922747 C23.5399745,10.2446352 23.6475376,10.6351931 24.1699865,10.6351931 C24.9997572,10.6351931 25.7373334,9.80901288 26.1368532,9.17811159 L25.7834319,8.93776824 C25.3685459,9.49356223 25.0765891,9.80901288 24.9229277,9.80901288 C24.8768292,9.80901288 24.7385339,9.77896996 24.7385339,9.59871245 C24.7385339,9.46351931 24.8307308,8.96781116 24.8921954,8.68240343 L25.9524595,4.01072961 C25.583672,4.01072961 25.1841522,4.05579399 24.8768292,3.9806867 M24.1085219,7.19527897 C23.355582,8.5472103 22.1723876,9.80901288 21.6806709,9.80901288 C21.1582231,9.80901288 21.0045605,9.20815451 21.0045605,8.36695279 C21.0045605,6.77467811 22.2799518,4.35622318 23.693636,4.35622318 C24.0163251,4.35622318 24.3543803,4.46137339 24.6463371,4.6416309 C24.6463371,4.6416309 24.4926756,6.23390558 24.1085219,7.19527897 M27.9397347,9.40343348 C27.8321717,9.83905579 27.6324106,10.0643777 27.1099629,10.0643777 L26.7565415,10.0643777 C26.6797108,10.0643777 26.6336123,10.1094421 26.60288,10.1845494 L26.5414155,10.4699571 L26.5721478,10.5 C26.5721478,10.5 27.6785103,10.4699571 28.2316915,10.4699571 C28.83097,10.4699571 29.9373337,10.5 29.9373337,10.5 L29.968066,10.4699571 L30.0448967,10.1845494 C30.0602629,10.1094421 30.0141644,10.0643777 29.9373337,10.0643777 L29.5839123,10.0643777 C29.1997587,10.0643777 29.0460972,9.92918455 29.0460972,9.65879828 C29.0460972,9.58369099 29.0614634,9.50858369 29.0768295,9.40343348 L29.5224478,7.55579399 C30.721006,7.57081545 31.9042004,7.99141631 31.9042004,9.67381974 C31.9042004,10.0042918 31.8581019,10.3948498 31.7505389,10.8454936 C31.3663853,12.4678112 30.6749075,13.4892704 29.5685462,13.4892704 C28.708042,13.4892704 28.5851129,13.0236052 28.5851129,12.5729614 L28.5851129,12.3476395 L28.5851129,12.2875536 C28.5851129,11.972103 28.3699856,11.806867 28.0165655,11.806867 C27.6631441,11.806867 27.3865535,12.0321888 27.2943566,12.4678112 C27.2789905,12.527897 27.2636243,12.6030043 27.2636243,12.6781116 C27.2636243,13.2939914 27.8936375,14 29.3534202,14 C31.1819892,14 32.5649447,12.3776824 33.0105629,10.5150215 C33.1027598,10.1545064 33.1334921,9.82403433 33.1334921,9.52360515 C33.1334921,7.4055794 31.1051584,7.04506438 29.6453769,7.04506438 L30.2139243,4.61158798 L31.550779,4.61158798 C32.3498174,4.61158798 32.4420155,5.30257511 32.4420155,6.06866953 L32.4420155,6.35407725 L32.8569014,6.30901288 L33.2103228,4.02575107 L30.3675858,4.02575107 L29.7836722,4.04077253 L28.0626639,4.01072961 L28.0165655,4.04077253 L27.9551009,4.37124464 C27.9397347,4.41630901 27.9551009,4.44635193 28.0011993,4.44635193 L28.4775498,4.44635193 C28.8617023,4.44635193 28.9999988,4.52145923 28.9999988,4.76180258 C28.9999988,4.85193133 28.9692665,4.98712446 28.9385342,5.16738197 L27.9397347,9.40343348 M40.2129627,3.9806867 C39.7980779,3.93562232 39.5983169,3.89055794 38.983671,3.89055794 C37.3394958,3.89055794 35.1114023,6.24892704 35.1114023,8.60729614 C35.1114023,9.44849785 35.3111645,10.6351931 36.6019184,10.6351931 C37.4163241,10.6351931 38.3229279,9.65879828 39.2448955,8.32188841 L39.2756278,8.35193133 L39.0297695,9.13304721 C38.9222064,9.49356223 38.876108,9.77896996 38.876108,9.95922747 C38.876108,10.2446352 38.983671,10.6351931 39.50612,10.6351931 C40.3358919,10.6351931 41.0734681,9.80901288 41.4729867,9.17811159 L41.1195653,8.93776824 C40.7046806,9.49356223 40.4127226,9.80901288 40.2590611,9.80901288 C40.2129627,9.80901288 40.0746674,9.77896996 40.0746674,9.59871245 C40.0746674,9.46351931 40.1668643,8.96781116 40.2283288,8.68240343 L41.2885929,4.01072961 C40.9198066,4.01072961 40.5202856,4.05579399 40.2129627,3.9806867 M39.4446554,7.19527897 C38.6917154,8.5472103 37.508521,9.80901288 37.0168044,9.80901288 C36.4943566,9.80901288 36.3406939,9.20815451 36.3406939,8.36695279 C36.3406939,6.77467811 37.6160864,4.35622318 39.0297695,4.35622318 C39.3524585,4.35622318 39.6905149,4.46137339 39.9824705,4.6416309 C39.9824705,4.6416309 39.8288091,6.23390558 39.4446554,7.19527897 M44.5973567,10.6351931 C46.1800686,10.6351931 46.8561802,9.67381974 47.148137,9.25321888 C47.1020385,9.10300429 47.0098416,9.027897 46.8715463,9.027897 C46.1954371,9.82403433 45.5193255,9.97424893 45.0737073,9.97424893 C44.5512595,9.97424893 43.9212463,9.70386266 43.9212463,7.91630901 C43.9212463,5.67811159 44.9968777,4.35622318 46.1800698,4.35622318 C46.3951958,4.35622318 46.8254479,4.46137339 46.8254479,4.95708155 C46.8254479,5.0472103 46.7947156,5.18240343 46.7486172,5.24248927 C46.7025187,5.30257511 46.6717864,5.46781116 46.6717864,5.55793991 C46.6717864,5.79828326 46.8100818,6.03862661 47.2249677,6.03862661 C47.3939953,6.03862661 47.885712,5.87339056 47.885712,5.36266094 C47.885712,4.77682403 47.593754,3.89055794 46.1339713,3.89055794 C44.3668669,3.89055794 42.6612224,5.75321888 42.6612224,8.24678112 C42.6612224,9.17811159 43.2605032,10.6351931 44.5973567,10.6351931 M59.7433341,-8.8817842e-16 C59.1747879,1.59227468 58.2220845,2.16309013 56.9620617,2.2832618 C55.6405756,2.40343348 55.194955,2.79399142 54.5495768,3.74034335 C54.2576212,4.17596567 53.9963956,4.79184549 53.8427341,5.36266094 C54.2883523,4.73175966 55.0412959,3.84549356 56.3935143,3.84549356 C57.9454939,3.84549356 58.4986763,4.88197425 58.4986763,6.08369099 C58.4986763,8.472103 56.6240053,10.6652361 54.5803091,10.6652361 C53.4585817,10.6652361 52.4751471,9.98927039 52.4751471,8.29184549 C52.4751471,6.09871245 54.2729897,1.44206009 57.2540185,1.20171674 C58.4525767,1.11158798 59.1133233,0.78111588 59.4360112,-8.8817842e-16 Z M66.1990362,3.84549356 L65.0773075,8.57725322 C64.9543784,9.05793991 64.8929138,9.44849785 64.8929138,9.59871245 C64.8929138,9.7639485 65.0619414,9.80901288 65.0926737,9.80901288 C65.2194444,9.80901288 65.389433,9.62312232 65.6350511,9.28302709 L65.8103565,9.03379953 L65.9070794,8.89270386 L66.2605008,9.13304721 C65.7073207,10.0793991 65.1080398,10.6351931 64.4011971,10.6351931 C63.8787493,10.6351931 63.7404528,10.2446352 63.7404528,9.95922747 C63.7404528,9.77896996 63.7865525,9.43347639 63.9094805,9.01287554 L64.1399726,8.17167382 L64.0938742,8.1416309 C63.002879,9.70386266 62.403597,10.6351931 61.0360112,10.6351931 C60.4520988,10.6351931 60.0064794,10.2896996 60.0064794,9.43347639 C60.0064794,9.14806867 60.0525778,8.81759657 60.1601409,8.42703863 L60.8516174,5.8583691 C60.9899127,5.36266094 61.020645,5.10729614 61.020645,4.95708155 C61.020645,4.79184549 60.9284481,4.74678112 60.8208851,4.74678112 C60.6518587,4.74678112 60.3599007,5.03218884 59.8835502,5.57296137 L59.545495,5.31759657 C60.0833101,4.59656652 60.9438155,3.89055794 61.6352909,3.89055794 C62.1577398,3.89055794 62.2653028,4.08583691 62.2653028,4.44635193 C62.2653028,4.73175966 62.1577398,5.22746781 62.0194445,5.73819742 L61.3587002,8.2167382 C61.2511372,8.6223176 61.2050388,8.9527897 61.2050388,9.19313305 C61.2050388,9.6888412 61.4047999,9.85407725 61.6813893,9.85407725 C62.4496966,9.85407725 63.2333712,8.72746781 64.3704648,6.83476395 L65.0465752,3.9806867 C65.2156029,3.9806867 65.8763483,3.9055794 66.1990362,3.84549356 Z M56.1322899,4.34120172 C54.5649453,4.34120172 53.6276081,6.53433476 53.6276081,8.26180258 C53.6276081,9.41845494 54.0732275,10.1845494 54.9644628,10.1845494 C56.3935132,10.1845494 57.3001169,7.99141631 57.3001169,6.1888412 C57.3001169,5.09227468 56.9313294,4.34120172 56.1322899,4.34120172 Z M73.0751465,5.15236052 C73.1827096,4.58154506 73.2749076,4.44635193 73.8127215,4.44635193 L74.2122413,4.44635193 C74.3044382,4.44635193 74.3351705,4.41630901 74.3505366,4.34120172 L74.4273674,4.04077253 L74.3966351,4.01072961 C74.3966351,4.01072961 73.4285679,4.04077253 72.8139221,4.04077253 L70.0326496,4.04077253 C69.4487373,4.04077253 68.5574996,4.01072961 68.5574996,4.01072961 L68.5114012,4.04077253 L68.4499366,4.3111588 C68.4192043,4.44635193 68.4806689,4.44635193 68.7265272,4.44635193 C69.1875116,4.44635193 69.3719054,4.50643777 69.3719054,4.91201717 C69.3719054,5.22746781 69.2643424,5.73819742 69.0645825,6.5944206 C68.6957961,8.17167382 68.3731059,9.07296137 68.0965153,9.58369099 C67.9121215,9.95922747 67.7430939,10.1094421 67.6047986,10.1094421 C67.4818694,10.1094421 67.435771,9.95922747 67.4511371,9.7639485 C67.4665033,9.74892704 67.4665033,9.71888412 67.4665033,9.70386266 C67.4665033,9.49356223 67.328208,9.31330472 67.0977158,9.31330472 C66.8057602,9.31330472 66.590633,9.55364807 66.5291684,9.85407725 C66.5138022,9.88412017 66.5138022,9.92918455 66.5138022,9.95922747 C66.5138022,10.3197425 66.8825909,10.6351931 67.3128418,10.6351931 C67.8967554,10.6351931 68.4038394,10.2596567 68.7418934,9.55364807 C69.0492163,8.96781116 69.418005,7.72103004 69.7099606,6.48927039 C70.0480158,5.07725322 70.2016784,4.62660944 70.7394924,4.62660944 L71.5538981,4.62660944 C71.9073194,4.62660944 72.0302486,4.70171674 72.0302486,4.92703863 C72.0302486,5.03218884 72.0148825,5.16738197 71.968784,5.34763948 L71.2004767,8.80257511 C71.0621814,9.43347639 71.0007168,9.71888412 71.0007168,10.0193133 C71.0007168,10.4248927 71.3387732,10.6351931 71.6921934,10.6351931 C72.2607408,10.6351931 72.9061201,10.304721 73.8127215,9.23819742 L73.4593002,8.9527897 C72.9368524,9.55364807 72.6295283,9.83905579 72.3990361,9.83905579 C72.2914731,9.83905579 72.2453747,9.71888412 72.2453747,9.56866953 C72.2453747,9.41845494 72.2761069,9.22317597 72.38367,8.68240343 L73.0751465,5.15236052 M77.3615814,3.89055794 C76.670106,3.89055794 75.8096007,4.59656652 75.2717856,5.31759657 L75.6098408,5.57296137 C76.0861913,5.03218884 76.3781481,4.74678112 76.5471757,4.74678112 C76.6547387,4.74678112 76.7469356,4.79184549 76.7469356,4.95708155 C76.7469356,5.10729614 76.7162033,5.36266094 76.577908,5.8583691 L75.8864314,8.42703863 C75.7788684,8.81759657 75.7327699,9.14806867 75.7327699,9.43347639 C75.7327699,10.2896996 76.1783882,10.6351931 76.7623017,10.6351931 C78.1298875,10.6351931 78.7291696,9.70386266 79.8201647,8.1416309 L79.8662632,8.17167382 L79.635771,9.01287554 C79.5128418,9.43347639 79.4667434,9.77896996 79.4667434,9.95922747 C79.4667434,10.2446352 79.6050387,10.6351931 80.1274877,10.6351931 C80.8343304,10.6351931 81.4336101,10.0793991 81.9867913,9.13304721 L81.63337,8.89270386 C81.2338502,9.47854077 80.9879918,9.80901288 80.8189642,9.80901288 C80.7882319,9.80901288 80.6192043,9.7639485 80.6192043,9.59871245 C80.6192043,9.44849785 80.6806689,9.05793991 80.8035981,8.57725322 L81.9253267,3.84549356 C81.6026377,3.9055794 80.9418934,3.9806867 80.7728658,3.9806867 L80.0967554,6.83476395 C78.9596618,8.72746781 78.1759859,9.85407725 77.4076798,9.85407725 C77.1310892,9.85407725 76.9313293,9.6888412 76.9313293,9.19313305 C76.9313293,8.9527897 76.9774277,8.6223176 77.0849908,8.2167382 L77.745735,5.73819742 C77.8840304,5.22746781 77.9915934,4.73175966 77.9915934,4.44635193 C77.9915934,4.08583691 77.8840304,3.89055794 77.3615814,3.89055794 M85.3747901,3.89055794 C84.6833135,3.89055794 83.8228093,4.59656652 83.2849942,5.31759657 L83.6230495,5.57296137 C84.0994,5.03218884 84.3913567,4.74678112 84.5603844,4.74678112 C84.6679474,4.74678112 84.7601442,4.79184549 84.7601442,4.95708155 C84.7601442,5.10729614 84.729412,5.36266094 84.5911166,5.8583691 L83.8996401,8.42703863 C83.7920771,8.81759657 83.7459786,9.14806867 83.7459786,9.43347639 C83.7459786,10.2896996 84.1915968,10.6351931 84.7755104,10.6351931 C86.1430974,10.6351931 86.7423771,9.70386266 87.8333734,8.1416309 L87.8794719,8.17167382 L87.6489797,9.01287554 C87.5260505,9.43347639 87.4799521,9.77896996 87.4799521,9.95922747 C87.4799521,10.2446352 87.6182474,10.6351931 88.1406963,10.6351931 C88.8475391,10.6351931 89.4468187,10.0793991 90,9.13304721 L89.6465786,8.89270386 C89.2470589,9.47854077 89.0012005,9.80901288 88.8321729,9.80901288 C88.8014406,9.80901288 88.632413,9.7639485 88.632413,9.59871245 C88.632413,9.44849785 88.6938776,9.05793991 88.8168068,8.57725322 L89.9385354,3.84549356 C89.6158464,3.9055794 88.9551021,3.9806867 88.7860745,3.9806867 L88.1099641,6.83476395 C86.9728693,8.72746781 86.1891958,9.85407725 85.4208885,9.85407725 C85.1442979,9.85407725 84.944538,9.6888412 84.944538,9.19313305 C84.944538,8.9527897 84.9906364,8.6223176 85.0981995,8.2167382 L85.7589437,5.73819742 C85.897239,5.22746781 86.0048021,4.73175966 86.0048021,4.44635193 C86.0048021,4.08583691 85.897239,3.89055794 85.3747901,3.89055794" id="sah-tagline" fill="#000000" fill-rule="nonzero"></path>
    </g>
</svg>

<svg xmlns="http://www.w3.org/2000/svg" width="90" height="14"><path fill="#000" fill-rule="nonzero" d="M4.687 6.234c-.246 0-.354-.03-.354-.105 0-.03.016-.06.031-.09l2.228-3.816h.03l.63 4.01H4.688M2.443 9.299 3.734 7.12c.108-.195.215-.255.569-.255h3.073l.384 2.538c.015.045.015.09.015.136 0 .33-.246.465-.753.51l-.43.03c-.061 0-.107.045-.123.12l-.061.286.015.03c.553-.015 1.398-.03 1.967-.03.6 0 1.183.015 1.72.03l.032-.03.061-.285c.015-.076-.046-.12-.123-.12l-.153-.016c-.584-.06-.83-.285-.922-.87L7.59 1.051C7.545.766 7.499.6 7.284.6c-.216 0-.354.135-.6.54l-4.84 7.812C1.275 9.884.845 10.034.2 10.079c-.077 0-.123.045-.139.12L0 10.486l.015.03c.554-.015.8-.03 1.368-.03.6 0 1.383.015 1.92.03l.047-.03.046-.285c.015-.076-.03-.12-.092-.12l-.415-.03c-.384-.03-.553-.18-.553-.406 0-.105.03-.21.107-.346m10.756.105.569-2.358c.89-.706 1.644-1.081 2.074-1.081.691 0 1.106.18 1.106.87 0 .181-.03.376-.076.632l-.461 1.937c-.108.436-.308.661-.815.661h-.292c-.077 0-.138.045-.153.12l-.077.286.03.03s1.045-.03 1.599-.03c.599 0 1.644.03 1.644.03l.03-.03.077-.285v-.03c0-.06-.046-.09-.107-.09h-.292c-.384 0-.538-.136-.538-.406 0-.075.015-.15.046-.256l.415-1.772c.077-.33.107-.616.107-.886 0-.977-.507-1.487-1.382-1.487-.6 0-1.552.225-2.812 1.231l.322-1.382c.108-.42.308-.66.815-.66h.245c.077 0 .123-.046.154-.12l.062-.286-.016-.03s-.999.03-1.552.03c-.599 0-1.644-.03-1.644-.03l-.03.03-.077.285c-.016.075.03.12.107.12h.292c.384 0 .538.136.538.406 0 .075-.016.165-.03.255l-1.015 4.296c-.108.436-.307.661-.83.661h-.292a.145.145 0 0 0-.138.12l-.077.286.03.03s1.046-.03 1.599-.03c.6 0 1.598.03 1.598.03l.03-.03.062-.285c.03-.076-.03-.12-.092-.12h-.246c-.384 0-.538-.136-.538-.406 0-.075.016-.15.031-.256m11.678-5.422c-.415-.045-.615-.09-1.23-.09-1.644 0-3.872 2.358-3.872 4.716 0 .841.2 2.028 1.49 2.028.815 0 1.722-.976 2.644-2.313l.03.03-.245.781c-.108.36-.154.646-.154.826 0 .286.108.676.63.676.83 0 1.567-.826 1.967-1.457l-.354-.24c-.414.556-.706.871-.86.871-.046 0-.184-.03-.184-.21 0-.135.092-.631.153-.917l1.06-4.671c-.368 0-.768.045-1.075-.03m-.768 3.214c-.753 1.352-1.937 2.614-2.428 2.614-.523 0-.676-.6-.676-1.442 0-1.592 1.275-4.01 2.689-4.01.322 0 .66.104.952.285 0 0-.153 1.592-.537 2.553m3.83 2.208c-.107.436-.307.661-.829.661h-.353c-.077 0-.123.045-.154.12l-.062.286.031.03s1.107-.03 1.66-.03c.599 0 1.705.03 1.705.03l.031-.03.077-.285c.015-.076-.03-.12-.108-.12h-.353c-.384 0-.538-.136-.538-.406 0-.075.015-.15.03-.256l.446-1.847c1.199.015 2.382.435 2.382 2.118 0 .33-.046.72-.153 1.171-.385 1.623-1.076 2.644-2.182 2.644-.861 0-.984-.465-.984-.916V12.288c0-.316-.215-.481-.568-.481-.354 0-.63.225-.723.66a.868.868 0 0 0-.03.211c0 .616.63 1.322 2.09 1.322 1.828 0 3.21-1.622 3.657-3.485a3.96 3.96 0 0 0 .122-.991c0-2.118-2.028-2.479-3.488-2.479l.569-2.433h1.337c.799 0 .891.69.891 1.457v.285l.415-.045.353-2.283h-2.842l-.584.015-1.721-.03-.046.03-.062.33c-.015.045 0 .075.046.075h.477c.384 0 .522.075.522.316 0 .09-.03.225-.061.405l-1 4.236m12.274-5.422c-.415-.045-.615-.09-1.23-.09-1.644 0-3.872 2.358-3.872 4.716 0 .841.2 2.028 1.49 2.028.815 0 1.722-.976 2.644-2.313l.03.03-.245.781c-.108.36-.154.646-.154.826 0 .286.108.676.63.676.83 0 1.567-.826 1.967-1.457l-.353-.24c-.415.556-.707.871-.86.871-.047 0-.185-.03-.185-.21 0-.135.092-.631.153-.917l1.06-4.671c-.368 0-.768.045-1.075-.03m-.768 3.214c-.753 1.352-1.936 2.614-2.428 2.614-.523 0-.676-.6-.676-1.442 0-1.592 1.275-4.01 2.689-4.01.322 0 .66.104.952.285 0 0-.153 1.592-.537 2.553m5.152 3.44c1.583 0 2.26-.961 2.551-1.382-.046-.15-.138-.225-.276-.225-.677.796-1.353.946-1.798.946-.523 0-1.153-.27-1.153-2.058 0-2.238 1.076-3.56 2.26-3.56.214 0 .644.105.644.601 0 .09-.03.225-.076.285-.046.06-.077.226-.077.316 0 .24.138.48.553.48.169 0 .66-.165.66-.675 0-.586-.291-1.472-1.751-1.472-1.767 0-3.473 1.862-3.473 4.356 0 .931.6 2.388 1.936 2.388M59.743 0c-.568 1.592-1.52 2.163-2.78 2.283-1.322.12-1.768.511-2.413 1.457-.292.436-.554 1.052-.707 1.623.445-.631 1.198-1.518 2.55-1.518 1.552 0 2.106 1.037 2.106 2.239 0 2.388-1.875 4.581-3.919 4.581-1.121 0-2.105-.676-2.105-2.373 0-2.193 1.798-6.85 4.779-7.09 1.199-.09 1.86-.42 2.182-1.202ZM66.2 3.845l-1.122 4.732c-.123.48-.184.871-.184 1.022 0 .165.169.21.2.21.126 0 .296-.186.542-.526l.175-.25.097-.14.354.24c-.554.946-1.153 1.502-1.86 1.502-.522 0-.66-.39-.66-.676 0-.18.046-.526.168-.946l.231-.841-.046-.03c-1.091 1.562-1.69 2.493-3.058 2.493-.584 0-1.03-.345-1.03-1.202 0-.285.047-.615.154-1.006l.692-2.569c.138-.495.169-.75.169-.9 0-.166-.093-.211-.2-.211-.17 0-.461.285-.937.826l-.339-.255c.538-.721 1.399-1.427 2.09-1.427.523 0 .63.195.63.555 0 .286-.107.781-.246 1.292l-.66 2.479a3.982 3.982 0 0 0-.154.976c0 .496.2.661.476.661.769 0 1.552-1.127 2.69-3.02l.676-2.853c.169 0 .83-.075 1.152-.136Zm-10.067.496c-1.567 0-2.504 2.193-2.504 3.92 0 1.157.445 1.924 1.336 1.924 1.43 0 2.336-2.194 2.336-3.996 0-1.097-.369-1.848-1.168-1.848Zm16.943.811c.108-.57.2-.706.738-.706h.4c.091 0 .122-.03.138-.105l.076-.3-.03-.03s-.968.03-1.583.03h-2.781c-.584 0-1.476-.03-1.476-.03l-.046.03-.061.27c-.03.135.03.135.277.135.46 0 .645.06.645.466 0 .315-.108.826-.307 1.682-.37 1.578-.692 2.479-.968 2.99-.185.375-.354.525-.492.525-.123 0-.17-.15-.154-.345.016-.015.016-.045.016-.06 0-.21-.139-.39-.37-.39-.291 0-.506.24-.568.54-.015.03-.015.075-.015.105 0 .36.369.676.799.676.584 0 1.09-.375 1.429-1.081.307-.586.676-1.833.968-3.065.338-1.412.492-1.862 1.03-1.862h.814c.353 0 .476.075.476.3 0 .105-.015.24-.061.42L71.2 8.804c-.138.63-.2.916-.2 1.216 0 .406.339.616.692.616.569 0 1.214-.33 2.12-1.397l-.353-.285c-.522.6-.83.886-1.06.886-.108 0-.154-.12-.154-.27 0-.15.031-.346.139-.887l.691-3.53m4.287-1.261c-.692 0-1.552.706-2.09 1.427l.338.255c.476-.54.768-.826.937-.826.108 0 .2.045.2.21 0 .15-.03.406-.17.901l-.69 2.569c-.108.39-.154.721-.154 1.006 0 .857.445 1.202 1.03 1.202 1.367 0 1.966-.931 3.057-2.493l.046.03-.23.84c-.123.421-.17.767-.17.947 0 .286.139.676.661.676.707 0 1.307-.556 1.86-1.502l-.354-.24c-.4.586-.645.916-.814.916-.03 0-.2-.045-.2-.21 0-.15.062-.541.185-1.022l1.121-4.732c-.322.06-.983.136-1.152.136l-.676 2.854c-1.137 1.892-1.921 3.02-2.69 3.02-.276 0-.476-.166-.476-.662 0-.24.046-.57.154-.976l.66-2.479c.139-.51.247-1.006.247-1.292 0-.36-.108-.555-.63-.555m8.013 0c-.692 0-1.552.706-2.09 1.427l.338.255c.476-.54.768-.826.937-.826.108 0 .2.045.2.21 0 .15-.03.406-.169.901L83.9 8.427c-.108.39-.154.721-.154 1.006 0 .857.446 1.202 1.03 1.202 1.367 0 1.966-.931 3.057-2.493l.046.03-.23.84c-.123.421-.169.767-.169.947 0 .286.138.676.66.676.708 0 1.307-.556 1.86-1.502l-.353-.24c-.4.586-.646.916-.815.916-.03 0-.2-.045-.2-.21 0-.15.062-.541.185-1.022l1.122-4.732c-.323.06-.984.136-1.153.136l-.676 2.854c-1.137 1.892-1.92 3.02-2.69 3.02-.276 0-.475-.166-.475-.662 0-.24.046-.57.153-.976l.66-2.479c.14-.51.247-1.006.247-1.292 0-.36-.108-.555-.63-.555"/></svg>
